X:1
T:Title
%%score { ( 1 4 ) | ( 2 3 ) }
L:1/8
M:3/4
K:Eb
V:1 treble nm="Grand Piano"
V:4 treble 
V:2 bass 
V:3 bass 
V:1
 z2 z2[Q:1/4=106] G>F | E2 E2 E2 | E4 G>[B,FA] | [B,GB]2 [B,EG]2 .[CAc]2 | [EGB]4 [B,EG]>[B,FA] | %5
 [B,GB]2 [Gc]2 [Gd]2 | [Ge]2 [FB]3 [G,EG] | [A,DF]6- | [A,DF]4 [A,DG]>[A,DF] | %9
 [G,E]2 [G,B,E]2 [A,CE]2 | [G,B,E]4 [B,EG]>[B,FA] | [B,GB]2 [EG]2 .[CAc]2 |[M:2/4] [EGB]4 | %13
[M:1/4] [B,GB][B,GB] |[M:3/4] [Ge]2 [FB]2 [EG]2 | [DB]2 [DA]3 [A,DF] | [G,E]6- |[M:2/4] [G,E]4 | %18
[M:1/4] [B,AB][B,AB] |[M:3/4] [Ge]2 [Bd]2 [Ac]2 | [GB]4 GB | c2 B2 A2 | G4 [FB][FB] | %23
 [Ee]2 [Fd]2 [Gc]2 | B2 d3 c | [B,DB]6- | [B,DB]4 [A,DG]>[A,DF] | E2 E2 E2 | E4 G>[FA] | %29
 [GB]2 [Ge]2 [G=B]2 | c4 dc | B2 e2 [Be]2 | [Af]2 [Ac]3 d | e2- [Be-]2 [Ae-]2 |[M:2/4] [Ge]4 |] %35
V:2
 z2 z2 [E,B,E]>[E,A,D] | [E,G,]2 [E,G,B,]2 [E,A,C]2 | [E,G,B,]4 [E,B,E]>E, | E,2 E,2 z D | %4
 E,4 E,>E, | E,2 [E,B,]2 [D,=B,]2 | [C,C]2 [D,F,]3 E, | B,,6- | B,,4 B,,>B,, | E,2 E,2 E,2 | %10
 E,4 E,>E, | E,2 E,2 z D |[M:2/4] E,4 |[M:1/4] D,D, |[M:3/4] [C,=A,]2 [D,B,]2 [E,B,]2 | %15
 [F,A,]2 [B,,F,]3 B,, | E,6- |[M:2/4] E,4 |[M:1/4] F,D, |[M:3/4] [E,B,]2 [E,C]2 [E,D]2 | %20
 [E,E]4 [E,B,E][G,B,E] | [A,E]2 [G,B,E]2 [F,B,D]2 | [E,B,E]4 [D,B,][D,F,] | %23
 [C,G,]2 [D,=B,]2 [E,C]2 | [F,DF]2 [F,B,F]3 [F,=A,E] | B,,2 D,2 F,2 | A,4 B,,>B,, | %27
 [E,G,]2 [E,G,B,]2 [E,A,C]2 | [E,G,B,]4 [E,B,E]>[E,B,] | [E,B,]2 [E,_D]2 [E,D]2 | %30
 [A,CA]4 [=A,C_G][A,DG] | [B,EG]2 [CEG]2[K:bass] [G,_D]2 | [A,C]2 [F,C]3 [B,A] | B,2 _D2 C2 | %34
[M:2/4] B,4 |] %35
V:3
 x6 | x6 | x6 | z2 z2 E,2 | x6 | x6 | x6 | x6 | x6 | x6 | x6 | z2 z2 E,2 |[M:2/4] x4 |[M:1/4] x2 | %14
[M:3/4] x6 | x6 | x6 |[M:2/4] x4 |[M:1/4] x2 |[M:3/4] x6 | x6 | x6 | x6 | x6 | x6 | x6 | x6 | x6 | %28
 x6 | x6 | x6 | x4[K:bass] x2 | x6 | E,6- |[M:2/4] E,4 |] %35
V:4
 x6 | x6 | x6 | x6 | x6 | x6 | x6 | x6 | x6 | x6 | x6 | x6 |[M:2/4] x4 |[M:1/4] x2 |[M:3/4] x6 | %15
 x6 | x6 |[M:2/4] x4 |[M:1/4] x2 |[M:3/4] x6 | x6 | x6 | x6 | x6 | x6 | x6 | x6 | x6 | x6 | x6 | %30
 x6 | x6 | x6 | G2 z2 z2 |[M:2/4] x4 |] %35

